svgs/duotone/globe.svg

<svg xmlns="http://www.w3.org/2000/svg" viewBox="0 0 512 512"><!--! Font Awesome Pro 6.3.0 by @fontawesome - https://fontawesome.com License - https://fontawesome.com/license (Commercial License) Copyright 2023 Fonticons, Inc. --><defs><style>.fa-secondary{opacity:.4}</style></defs><path class="fa-primary" d="M321.4 503.6C300.6 509.1 278.6 512 255.1 512C233.4 512 211.4 509.1 190.6 503.6C165.1 469.4 145.3 415.9 135.3 352H18.61C14.42 341.7 10.89 330.1 8.065 320H131.2C129.1 299.4 127.1 277.1 127.1 256C127.1 234 129.1 212.6 131.2 192H8.065C10.89 181 14.42 170.3 18.61 160H135.3C145.3 96.14 165.1 42.62 190.6 8.442C211.4 2.934 233.4 0 255.1 0C248.7 0 239.4 3.178 228.2 13.81C216.9 24.61 205.2 41.74 194.7 65.35C183.2 91.38 173.8 123.6 167.7 160H344.3C338.2 123.6 328.8 91.38 317.3 65.35C306.8 41.74 295.1 24.61 283.8 13.81C272.6 3.178 263.3 0 255.1 0C278.6 0 300.6 2.934 321.4 8.442C346.9 42.62 366.7 96.14 376.7 160H493.4C497.6 170.3 501.1 181 503.9 192H380.8C382.9 212.6 384 234 384 256C384 277.1 382.9 299.4 380.8 320H503.9C501.1 330.1 497.6 341.7 493.4 352H376.7C366.7 415.9 346.9 469.4 321.4 503.6H321.4zM167.7 352C173.8 388.4 183.2 420.6 194.7 446.6C205.2 470.3 216.9 487.4 228.2 498.2C239.4 508.8 248.7 512 255.1 512C263.3 512 272.6 508.8 283.8 498.2C295.1 487.4 306.8 470.3 317.3 446.6C328.8 420.6 338.2 388.4 344.3 352H167.7zM352 256C352 233.8 350.8 212.4 348.7 192H163.3C161.2 212.4 159.1 233.8 159.1 256C159.1 278.2 161.2 299.6 163.3 320H348.7C350.8 299.6 352 278.2 352 256z"/><path class="fa-secondary" d="M352 256C352 278.2 350.8 299.6 348.7 320H163.3C161.2 299.6 159.1 278.2 159.1 256C159.1 233.8 161.2 212.4 163.3 192H348.7C350.8 212.4 352 233.8 352 256zM503.9 192C509.2 212.5 512 233.9 512 256C512 278.1 509.2 299.5 503.9 320H380.8C382.9 299.4 384 277.1 384 256C384 234 382.9 212.6 380.8 192H503.9zM493.4 160H376.7C366.7 96.14 346.9 42.62 321.4 8.442C399.8 29.09 463.4 85.94 493.4 160zM344.3 160H167.7C173.8 123.6 183.2 91.38 194.7 65.35C205.2 41.74 216.9 24.61 228.2 13.81C239.4 3.178 248.7 0 256 0C263.3 0 272.6 3.178 283.8 13.81C295.1 24.61 306.8 41.74 317.3 65.35C328.8 91.38 338.2 123.6 344.3 160H344.3zM18.61 160C48.59 85.94 112.2 29.09 190.6 8.442C165.1 42.62 145.3 96.14 135.3 160H18.61zM131.2 192C129.1 212.6 127.1 234 127.1 256C127.1 277.1 129.1 299.4 131.2 320H8.065C2.8 299.5 0 278.1 0 256C0 233.9 2.8 212.5 8.065 192H131.2zM194.7 446.6C183.2 420.6 173.8 388.4 167.7 352H344.3C338.2 388.4 328.8 420.6 317.3 446.6C306.8 470.3 295.1 487.4 283.8 498.2C272.6 508.8 263.3 512 255.1 512C248.7 512 239.4 508.8 228.2 498.2C216.9 487.4 205.2 470.3 194.7 446.6H194.7zM190.6 503.6C112.2 482.9 48.59 426.1 18.61 352H135.3C145.3 415.9 165.1 469.4 190.6 503.6V503.6zM321.4 503.6C346.9 469.4 366.7 415.9 376.7 352H493.4C463.4 426.1 399.8 482.9 321.4 503.6V503.6z"/></svg>

<svg xmlns="http://www.w3.org/2000/svg" viewBox="0 0 512 512"><!--! Font Awesome Pro 6.4.0 by @fontawesome - https://fontawesome.com License - https://fontawesome.com/license (Commercial License) Copyright 2023 Fonticons, Inc. --><defs><style>.fa-secondary{opacity:.4}</style></defs><path class="fa-primary" d="M344.3 352H167.7c6.1 36.4 15.5 68.6 27 94.6c10.5 23.6 22.2 40.7 33.5 51.5C239.4 508.8 248.7 512 256 512s16.6-3.2 27.8-13.8c11.3-10.8 23-27.9 33.5-51.5c11.6-26 20.9-58.2 27-94.6zM321.4 503.6c-20.9 5.5-42.8 8.4-65.4 8.4s-44.6-2.9-65.4-8.4c-25.5-34.2-45.2-87.7-55.3-151.6H18.6c-4.2-10.3-7.7-21-10.5-32H131.2c-2.1-20.6-3.2-42-3.2-64s1.1-43.4 3.2-64H8.1c2.8-11 6.4-21.7 10.5-32H135.3c10-63.9 29.8-117.4 55.3-151.6C211.4 2.9 233.4 0 256 0c-7.3 0-16.6 3.2-27.8 13.8c-11.3 10.8-23 27.9-33.5 51.5c-11.6 26-20.9 58.2-27 94.7H344.3c-6.1-36.4-15.5-68.6-27-94.7c-10.5-23.6-22.2-40.7-33.5-51.5C272.6 3.2 263.3 0 256 0c22.6 0 44.6 2.9 65.4 8.4c25.5 34.2 45.2 87.7 55.3 151.6H493.4c4.2 10.3 7.7 21 10.5 32H380.8c2.1 20.6 3.2 42 3.2 64s-1.1 43.4-3.2 64H503.9c-2.8 11-6.4 21.7-10.5 32H376.7c-10 63.9-29.8 117.4-55.3 151.6zM352 256c0-22.2-1.2-43.6-3.3-64H163.3c-2.2 20.4-3.3 41.8-3.3 64s1.2 43.6 3.3 64H348.7c2.2-20.4 3.3-41.8 3.3-64z"/><path class="fa-secondary" d="M352 256c0 22.2-1.2 43.6-3.3 64H163.3c-2.2-20.4-3.3-41.8-3.3-64s1.2-43.6 3.3-64H348.7c2.2 20.4 3.3 41.8 3.3 64zm28.8-64H503.9c5.3 20.5 8.1 41.9 8.1 64s-2.8 43.5-8.1 64H380.8c2.1-20.6 3.2-42 3.2-64s-1.1-43.4-3.2-64zm112.6-32H376.7c-10-63.9-29.8-117.4-55.3-151.6c78.3 20.7 142 77.5 171.9 151.6zm-149.1 0H167.7c6.1-36.4 15.5-68.6 27-94.7c10.5-23.6 22.2-40.7 33.5-51.5C239.4 3.2 248.7 0 256 0s16.6 3.2 27.8 13.8c11.3 10.8 23 27.9 33.5 51.5c11.6 26 20.9 58.2 27 94.7zm-209 0H18.6C48.6 85.9 112.2 29.1 190.6 8.4C165.1 42.6 145.3 96.1 135.3 160zM8.1 192H131.2c-2.1 20.6-3.2 42-3.2 64s1.1 43.4 3.2 64H8.1C2.8 299.5 0 278.1 0 256s2.8-43.5 8.1-64zM194.7 446.6c-11.6-26-20.9-58.2-27-94.6H344.3c-6.1 36.4-15.5 68.6-27 94.6c-10.5 23.6-22.2 40.7-33.5 51.5C272.6 508.8 263.3 512 256 512s-16.6-3.2-27.8-13.8c-11.3-10.8-23-27.9-33.5-51.5zM135.3 352c10 63.9 29.8 117.4 55.3 151.6C112.2 482.9 48.6 426.1 18.6 352H135.3zm358.1 0c-30 74.1-93.6 130.9-171.9 151.6c25.5-34.2 45.2-87.7 55.3-151.6H493.4z"/></svg>
